packages/icons/raw/imported/DevicesMacbookAndIphone.svg

<svg width="32" height="32" viewBox="0 0 32 32" fill="none" xmlns="http://www.w3.org/2000/svg">
<path d="M7.92857 23.4999V23.9999V23.4999ZM18.1111 21.1428C18.3872 21.1428 18.6111 20.9189 18.6111 20.6428C18.6111 20.3667 18.3872 20.1428 18.1111 20.1428V21.1428ZM7.92857 20.6428V21.1428V20.6428ZM24.0926 10.5H23.5926H24.0926ZM7.9074 10.5H7.4074H7.9074ZM22.0926 8.5L22.0926 9L22.0926 8.5ZM9.9074 8.50001L9.9074 9.00001L9.9074 8.50001ZM23.5 13.5V14V13.5ZM21.0584 13.5V13V13.5ZM19.0584 21.5H19.5584H19.0584ZM19.0584 15.5H19.5584H19.0584ZM23.5 23.5V23V23.5ZM21.0584 23.5V24V23.5ZM25.5 21.5L26 21.5L25.5 21.5ZM25.5 15.5L25 15.5V15.5L25.5 15.5ZM19.8704 22.9999H7.92857V23.9999H19.8704V22.9999ZM18.1111 20.1428H7.92857V21.1428H18.1111V20.1428ZM7 22.0714C7 21.5585 7.41574 21.1428 7.92857 21.1428V20.1428C6.86345 20.1428 6 21.0062 6 22.0714H7ZM7.92857 22.9999C7.41573 22.9999 7 22.5842 7 22.0714H6C6 23.1365 6.86345 23.9999 7.92857 23.9999V22.9999ZM23.5926 10.5V13.5H24.5926V10.5H23.5926ZM7.4074 10.5L7.4074 20.6429H8.4074L8.4074 10.5H7.4074ZM22.0926 8L9.9074 8.00001L9.9074 9.00001L22.0926 9L22.0926 8ZM24.5926 10.5C24.5926 9.11929 23.4733 8 22.0926 8L22.0926 9C22.921 9 23.5926 9.67157 23.5926 10.5H24.5926ZM8.4074 10.5C8.4074 9.67159 9.07897 9.00001 9.9074 9.00001L9.9074 8.00001C8.52669 8.00001 7.4074 9.1193 7.4074 10.5H8.4074ZM23.5 13L21.0584 13V14L23.5 14V13ZM19.5584 21.5V15.5H18.5584V21.5H19.5584ZM23.5 23H21.0584V24H23.5V23ZM26 21.5L26 15.5L25 15.5L25 21.5L26 21.5ZM23.5 24C24.8807 24 26 22.8807 26 21.5L25 21.5C25 22.3284 24.3284 23 23.5 23V24ZM23.5 14C24.3284 14 25 14.6716 25 15.5L26 15.5C26 14.1193 24.8807 13 23.5 13V14ZM21.0584 13C19.6777 13 18.5584 14.1193 18.5584 15.5H19.5584C19.5584 14.6716 20.23 14 21.0584 14V13ZM18.5584 21.5C18.5584 22.8807 19.6777 24 21.0584 24V23C20.23 23 19.5584 22.3284 19.5584 21.5H18.5584Z" fill="black"/>
</svg>

<svg width="32" height="32" fill="none" xmlns="http://www.w3.org/2000/svg"><path d="M7.929 23.5v.5-.5Zm10.182-2.357a.5.5 0 0 0 0-1v1Zm-10.182-.5v.5-.5ZM24.093 10.5h-.5.5Zm-16.186 0h-.5.5Zm14.186-2V9v-.5Zm-12.186 0V9v-.5Zm13.593 5v.5-.5Zm-2.442 0V13v.5Zm-2 8h.5-.5Zm0-6h.5-.5Zm4.442 8V23v.5Zm-2.442 0v.5-.5Zm4.442-2h.5-.5Zm0-6H25h.5ZM19.87 23H7.93v1H19.87v-1Zm-1.759-2.857H7.93v1H18.11v-1ZM7 22.07c0-.513.416-.928.929-.928v-1A1.929 1.929 0 0 0 6 22.07h1Zm.929.929A.929.929 0 0 1 7 22.07H6C6 23.137 6.863 24 7.929 24v-1Zm15.664-12.5v3h1v-3h-1Zm-16.186 0v10.143h1V10.5h-1ZM22.093 8H9.907v1h12.186V8Zm2.5 2.5a2.5 2.5 0 0 0-2.5-2.5v1a1.5 1.5 0 0 1 1.5 1.5h1Zm-16.186 0a1.5 1.5 0 0 1 1.5-1.5V8a2.5 2.5 0 0 0-2.5 2.5h1ZM23.5 13h-2.442v1H23.5v-1Zm-3.942 8.5v-6h-1v6h1ZM23.5 23h-2.442v1H23.5v-1Zm2.5-1.5v-6h-1v6h1ZM23.5 24a2.5 2.5 0 0 0 2.5-2.5h-1a1.5 1.5 0 0 1-1.5 1.5v1Zm0-10a1.5 1.5 0 0 1 1.5 1.5h1a2.5 2.5 0 0 0-2.5-2.5v1Zm-2.442-1a2.5 2.5 0 0 0-2.5 2.5h1a1.5 1.5 0 0 1 1.5-1.5v-1Zm-2.5 8.5a2.5 2.5 0 0 0 2.5 2.5v-1a1.5 1.5 0 0 1-1.5-1.5h-1Z" fill="#000"/></svg>
